svg/form_textbox_lock.svg

<svg xmlns="http://www.w3.org/2000/svg" viewBox="0 0 24 24"><path d="M2 7h4v2H4v6h2v2H2zm8 0h12v5c-.58-.44-1.26-.75-2-.9V9H10v6h4.25c-.69 0-1.25.56-1.25 1.25V17h-3v2c0 .55.45 1 1 1h2v2h-2.5c-.55 0-1.5-.45-1.5-1 0 .55-.95 1-1.5 1H5v-2h2c.55 0 1-.45 1-1V5c0-.55-.45-1-1-1H5V2h2.5C8.05 2 9 2.45 9 3c0-.55.95-1 1.5-1H13v2h-2c-.55 0-1 .45-1 1zm11.8 10c.6 0 1.2.6 1.2 1.3v3.5c0 .6-.6 1.2-1.3 1.2h-5.5c-.6 0-1.2-.6-1.2-1.3v-3.5c0-.6.6-1.2 1.2-1.2v-1.5c0-1.4 1.4-2.5 2.8-2.5s2.8 1.1 2.8 2.5zm-1.3 0v-1.5c0-.8-.7-1.3-1.5-1.3s-1.5.5-1.5 1.3V17z"/></svg>

<?xml version="1.0" encoding="UTF-8"?><!DOCTYPE svg PUBLIC "-//W3C//DTD SVG 1.1//EN" "http://www.w3.org/Graphics/SVG/1.1/DTD/svg11.dtd"><svg xmlns="http://www.w3.org/2000/svg" xmlns:xlink="http://www.w3.org/1999/xlink" version="1.1" id="mdi-form-textbox-lock" width="24" height="24" viewBox="0 0 24 24"><path d="M2 7H6V9H4V15H6V17H2V7M10 7H22V12C21.42 11.56 20.74 11.25 20 11.1V9H10V15H14.25C13.56 15 13 15.56 13 16.25V17H10V19C10 19.55 10.45 20 11 20H13V22H10.5C9.95 22 9 21.55 9 21C9 21.55 8.05 22 7.5 22H5V20H7C7.55 20 8 19.55 8 19V5C8 4.45 7.55 4 7 4H5V2H7.5C8.05 2 9 2.45 9 3C9 2.45 9.95 2 10.5 2H13V4H11C10.45 4 10 4.45 10 5V7M21.8 17C22.4 17 23 17.6 23 18.3V21.8C23 22.4 22.4 23 21.7 23H16.2C15.6 23 15 22.4 15 21.7V18.2C15 17.6 15.6 17 16.2 17V15.5C16.2 14.1 17.6 13 19 13C20.4 13 21.8 14.1 21.8 15.5V17M20.5 17V15.5C20.5 14.7 19.8 14.2 19 14.2C18.2 14.2 17.5 14.7 17.5 15.5V17H20.5Z" /></svg>
